X:1
T:[ID 7-55]
T:[ID 7-55]
T:Bezeichnung standardisiert: Menuet [mit Trio] 5. Menuet [mit Trio]
T:Urheber unbekannt Datum in der hier transkribierten schriftlichen Quelle: 1776 - 1791
C:Urheber unbekannt
C:Datum in der hier transkribierten schriftlichen Quelle: 1776 - 1791
%%score 1 2
L:1/8
M:3/4
K:D
V:1 treble 
V:2 treble 
V:1
 d4 (3ABc | d2 f2 a2 |{a} g2 eg f2 |!p!{A} G2 (EG) F2 |!f! d4 (3ABc | d2 f2 a2 | (3fed c2 B2 | %7
{B} A6 :: e4 (3gec | dagfed"^1)" |!p! e4 (3gec | (3dag (3fed (3cBA |!f! d4 (3ABc | d2 f2 a2 | %14
 (3bag f2 e2 |{e} d6 :|[M:3/4]"^Trio"!p! A2 A2 (3BAG | F2 z2 z2 | G2 G2 (3AGF | E2 z2 z2 | %20
 (FA).A.A.A.A | (Ad)cB A2 | BA G2 F2 |{F} E6 :: E2 E2 (3FED | F2 z2 z2 | F2 F2 (3GFE | G2 z2 z2 | %28
 (F/E/F/G/) FAAA | (BA)(Bc) d2 | (3BAG F2 E2 |{E} D6 :| %32
V:2
[K:Bb]"^-44,22 2)" B4 (3FGA | B2 d2 f2 |{f} e2 (ce) d2 |{F} E2 (CE) D2 | B4 (3FGA | B2 d2 f2 | %6
 (3BAG F2 =E2 |{E} F6 :: c4 (3ecA | (3Bfe (3dcB (3AGF |!p! c4 (3ecA | (3Bfe (3dcB (3AGF | %12
!f! B4 (3FGA | B2 d2 f2 | (3edc B2 A2 |{A} B6 :|[M:3/4] D2 D2 (3EDC | B,2 z2 z2 | C2 C2 (3DCB, | %19
 A,2 z2 z2 | (B,D).D.D.D.D | (DGFE) D2 | ED C2 B,2 |{B,} A,6 :: A,2 A,2 (3B,A,G, | B,2 z2 z2 | %26
 B,2 B,2 (3CB,A, | C2 z2 z2 | (B,/A,/B,/C/) B,DDD | ECEC D2 | (3EDC B,2 A,2 |{A,} G,6 :| %32

